X: 1
T:Last of the Mohicans(Main Theme)
Z:Reava - Laurelin(Europe)
M:4/4
L:1/8
Q:1/4=60
K:C

c3B/2A/2 E3A/2c/2|B/2d6-d3/2|c/2e/2e2d/2c/2 B/2d/2d2B|
B/2A6-A3/2-|A/2z1z1/2|
A/2A/2A/2A/2 c/2A/2B/2^G/2 A/2A/2A/2A/2 c/2A/2B/2^G/2|=G/2G/2B/2B/2 d/2B/2B/2G/2 G/2G/2B/2B/2 d/2B/2B/2G/2|c/2c/2c/2c/2 d/2c/2c/2A/2 B/2B/2B/2B/2 d/2B/2B/2G/2|
A/2A/2A/2A/2 c/2A/2B/2^G/2 A/2A/2A/2A/2 c/2A/2B/2z/2| z2
C/2E/2E2D/2C/2 B,/2D/2D2B,|A,8|c3B/2A/2 E3A/2c/2|B/2d6-d3/2|
c/2e/2e2d/2c/2 B/2d/2d2B|A2-|A4- A/2
A/2A/2A/2A/2 c/2A/2B/2^G/2 A/2A/2A/2A/2 c/2A/2B/2^G/2|=G/2G/2B/2B/2 d/2B/2B/2G/2 G/2G/2B/2B/2 d/2B/2B/2G/2|c/2c/2c/2c/2 d/2c/2c/2A/2 B/2B/2B/2B/2 d/2B/2B/2G/2|
A/2A/2A/2A/2 c/2A/2B/2^G/2 A/2A/2A/2A/2 c/2A/2B/2z/2|
z1|c3B/2A/2 E3A/2c/2|B/2d6-d3/2|c/2e/2e2d/2c/2 B/2d/2d2B|
B/2A2-A3/2|c2 BA|E2 Ac|Bd2-d-|
d2|ce e2 dc|Bd2-d B2|BA2-A|
A/2A/2A/2A/2 c/2A/2B/2^G/2 A/2A/2A/2A/2 c/2A/2B/2^G/2|=G/2G/2B/2B/2 d/2B/2B/2G/2 G/2G/2B/2B/2 d/2B/2B/2G/2|c/2c/2c/2c/2 d/2c/2c/2A/2 B/2B/2B/2B/2 d/2B/2B/2G/2|
A/2A/2A/2A/2 c/2A/2B/2^G/2 A/2A/2A/2A/2 c/2A/2B/2z/2|
zc BA EC A,C|c2 BA|E2 Ac|B3/2d2-d/2-|
d2|ce2-e dc|Bd2-d B2|BA2-A|
E,3A,/2C/2|B,/2D6-D3/2|
C/2E/2E2D/2C/2 B,/2D/2D2B,|A,8|c3B/2A/2 E3A/2c/2|B/2d6-d3/2|
c/2e/2e2d/2c/2 B/2d/2d2B|A8-|A4- A/2
